X:1
T: Mr. Alexander Troup (Balgedie)
C:Alexander Walker
R:Strathspey
Q: 128
K:F#m
M:4/4
L:1/16
|:E2|CF3 F3G A3B c3E|G3E B3E e3E B3E|CF3 F3G A3B c3d|e3c B3G F4 F2E2|
CF3 F3G A3B c3E|G3E B3E e3E B3E|CF3 F3G A3B c3d|e3c B3G F4 F2G2|
Ff3 f3g a3f g3e|f3c e3B c3A B3G|Ff3 f3g a3f g3e|c3B e3G F4 F3f|
a3f F3f A3f c3f|e3E G3B E3B G3E|F3C F3G A3B c3d|e3c B3G F4 F2:|
